assets/icons/eye.svg

<svg xmlns="http://www.w3.org/2000/svg" class="icon" viewBox="0 0 512 512">
  <path
    d="M 255.5593803786575 100.90189328743546 Q 212.37865748709123 101.78313253012048 177.1290877796902 118.52667814113597 L 177.1290877796902 118.52667814113597 L 177.1290877796902 118.52667814113597 Q 141.87951807228916 134.38898450946644 114.56110154905336 160.8261617900172 Q 89.0051635111876 184.61962134251291 71.38037865748709 210.17555938037864 Q 54.6368330464716 235.7314974182444 44.943201376936315 256 Q 54.6368330464716 276.26850258175557 71.38037865748709 301.8244406196213 Q 89.0051635111876 327.3803786574871 114.56110154905336 351.17383820998276 Q 141.87951807228916 377.6110154905336 177.1290877796902 393.47332185886404 Q 212.37865748709123 410.2168674698795 255.5593803786575 411.0981067125646 Q 298.74010327022376 410.2168674698795 333.98967297762476 393.47332185886404 Q 369.23924268502583 377.6110154905336 396.5576592082616 351.17383820998276 Q 422.11359724612737 327.3803786574871 439.7383820998279 301.8244406196213 Q 456.48192771084337 276.26850258175557 466.1755593803787 256 Q 456.48192771084337 235.7314974182444 439.7383820998279 210.17555938037864 Q 422.11359724612737 184.61962134251291 396.5576592082616 160.8261617900172 Q 369.23924268502583 134.38898450946644 333.98967297762476 118.52667814113597 Q 298.74010327022376 101.78313253012048 255.5593803786575 100.90189328743546 L 255.5593803786575 100.90189328743546 Z M 85.4802065404475 129.98278829604132 Q 117.20481927710843 100.02065404475043 159.50430292598966 79.75215146299483 L 159.50430292598966 79.75215146299483 L 159.50430292598966 79.75215146299483 Q 201.8037865748709 59.48364888123924 255.5593803786575 58.602409638554214 Q 309.3149741824441 59.48364888123924 351.6144578313253 79.75215146299483 Q 393.9139414802065 100.02065404475043 425.6385542168675 129.98278829604132 Q 456.48192771084337 159.06368330464716 476.750430292599 189.90705679862307 Q 497.01893287435456 220.75043029259896 507.5938037865749 245.42512908777968 Q 512 256 507.5938037865749 266.5748709122203 Q 497.01893287435456 291.249569707401 476.750430292599 322.09294320137695 Q 456.48192771084337 352.93631669535284 425.6385542168675 382.0172117039587 Q 393.9139414802065 411.9793459552496 351.6144578313253 432.24784853700515 Q 309.3149741824441 452.5163511187608 255.5593803786575 453.3975903614458 Q 201.8037865748709 452.5163511187608 159.50430292598966 432.24784853700515 Q 117.20481927710843 411.9793459552496 85.4802065404475 382.0172117039587 Q 54.6368330464716 352.93631669535284 34.36833046471601 322.09294320137695 Q 14.099827882960414 291.249569707401 4.406196213425129 266.5748709122203 Q 0 256 4.406196213425129 245.42512908777968 Q 14.099827882960414 220.75043029259896 34.36833046471601 189.90705679862307 Q 54.6368330464716 159.06368330464716 85.4802065404475 129.98278829604132 L 85.4802065404475 129.98278829604132 Z M 255.5593803786575 326.4991394148021 Q 285.52151462994834 325.61790017211706 305.79001721170397 306.23063683304645 L 305.79001721170397 306.23063683304645 L 305.79001721170397 306.23063683304645 Q 325.1772805507745 285.9621342512909 326.05851979345954 256 Q 325.1772805507745 226.03786574870912 305.79001721170397 205.76936316695353 Q 285.52151462994834 186.38209982788297 255.5593803786575 185.50086058519793 Q 254.67814113597245 185.50086058519793 254.67814113597245 185.50086058519793 Q 254.67814113597245 185.50086058519793 253.79690189328744 185.50086058519793 Q 255.5593803786575 192.55077452667814 255.5593803786575 199.60068846815835 Q 254.67814113597245 223.39414802065406 238.815834767642 239.2564543889845 Q 222.95352839931152 255.118760757315 199.16006884681585 256 Q 192.11015490533563 256 185.06024096385542 254.23752151462995 Q 185.06024096385542 255.118760757315 185.06024096385542 255.118760757315 Q 185.06024096385542 255.118760757315 185.06024096385542 256 Q 185.94148020654046 285.9621342512909 205.32874354561102 306.23063683304645 Q 225.59724612736662 325.61790017211706 255.5593803786575 326.4991394148021 L 255.5593803786575 326.4991394148021 Z M 255.5593803786575 143.2013769363167 Q 286.4027538726334 143.2013769363167 311.9586919104991 158.18244406196214 L 311.9586919104991 158.18244406196214 L 311.9586919104991 158.18244406196214 Q 337.51462994836487 173.16351118760758 353.3769363166954 199.60068846815835 Q 368.3580034423408 226.03786574870912 368.3580034423408 256 Q 368.3580034423408 285.9621342512909 353.3769363166954 312.39931153184165 Q 337.51462994836487 338.8364888123924 311.9586919104991 353.81755593803786 Q 286.4027538726334 368.7986230636833 255.5593803786575 368.7986230636833 Q 224.71600688468158 368.7986230636833 199.16006884681585 353.81755593803786 Q 173.6041308089501 338.8364888123924 157.7418244406196 312.39931153184165 Q 142.76075731497417 285.9621342512909 142.76075731497417 256 Q 142.76075731497417 226.03786574870912 157.7418244406196 199.60068846815835 Q 173.6041308089501 173.16351118760758 199.16006884681585 158.18244406196214 Q 224.71600688468158 143.2013769363167 255.5593803786575 143.2013769363167 L 255.5593803786575 143.2013769363167 Z"
  />
</svg>

<svg xmlns="http://www.w3.org/2000/svg" class="icon" viewBox="0 0 512 512">
  <path
    d="M255.56 100.902q-43.181.881-78.43 17.625-35.25 15.862-62.569 42.3-25.556 23.793-43.18 49.349Q54.636 235.73 44.942 256q9.694 20.269 26.437 45.824 17.625 25.556 43.181 49.35 27.319 26.437 62.568 42.3 35.25 16.743 78.43 17.624 43.181-.881 78.43-17.625 35.25-15.862 62.569-42.3 25.556-23.793 43.18-49.349Q456.482 276.27 466.176 256q-9.694-20.269-26.438-45.824-17.624-25.556-43.18-49.35-27.319-26.437-62.568-42.3-35.25-16.743-78.43-17.624m-170.08 29.08q31.725-29.961 74.024-50.23t96.055-21.15q53.756.882 96.055 21.15 42.3 20.269 74.025 50.23 30.843 29.082 51.111 59.925 20.269 30.843 30.844 55.518 4.406 10.575 0 21.15-10.575 24.675-30.844 55.518-20.268 30.843-51.111 59.924-31.725 29.962-74.025 50.23-42.299 20.27-96.055 21.15-53.755-.88-96.055-21.15-42.3-20.268-74.024-50.23-30.843-29.08-51.112-59.924Q14.1 291.25 4.406 266.575 0 256 4.406 245.425q9.694-24.675 29.962-55.518t51.112-59.924M255.56 326.5q29.962-.881 50.23-20.268 19.387-20.269 20.269-50.231-.882-29.962-20.269-50.23-20.268-19.388-50.23-20.27h-1.763q1.762 7.05 1.762 14.1-.88 23.794-16.743 39.656Q222.954 255.12 199.16 256q-7.05 0-14.1-1.762V256q.881 29.962 20.269 50.23 20.268 19.388 50.23 20.27m0-183.298q30.843 0 56.399 14.981t41.418 41.419q14.981 26.437 14.981 56.399t-14.981 56.4q-15.862 26.436-41.418 41.418-25.556 14.98-56.4 14.98t-56.399-14.98-41.418-41.419Q142.76 285.962 142.76 256t14.98-56.4q15.863-26.436 41.42-41.418 25.555-14.98 56.398-14.98" />
</svg>
